Yaru++/apps/16/Alacritty.svg

<svg height="16" width="16" xmlns="http://www.w3.org/2000/svg"><g fill="#808080"><path d="m1.5 14.03529 5.294118-13.23528996h2.6470575l5.2941175 13.23528996h-2.647059l-3.8823525-10.58823-4.0588225 10.58823z"/><path d="m8.1418475 15.8-1.7647055-5.29412 1.7647055-3.52941 1.764706 3.52941z"/></g></svg>

<?xml version="1.0" encoding="UTF-8" standalone="no"?>
<svg
   xmlns:dc="http://purl.org/dc/elements/1.1/"
   xmlns:cc="http://creativecommons.org/ns#"
   xmlns:rdf="http://www.w3.org/1999/02/22-rdf-syntax-ns#"
   xmlns:svg="http://www.w3.org/2000/svg"
   xmlns="http://www.w3.org/2000/svg"
   xmlns:sodipodi="http://sodipodi.sourceforge.net/DTD/sodipodi-0.dtd"
   xmlns:inkscape="http://www.inkscape.org/namespaces/inkscape"
   height="16"
   width="16"
   version="1.1"
   id="svg16"
   sodipodi:docname="alacarte-symbolic.svg"
   inkscape:version="0.92.5 (2060ec1f9f, 2020-04-08)">
  <metadata
     id="metadata22">
    <rdf:RDF>
      <cc:Work
         rdf:about="">
        <dc:format>image/svg+xml</dc:format>
        <dc:type
           rdf:resource="http://purl.org/dc/dcmitype/StillImage" />
        <dc:title></dc:title>
      </cc:Work>
    </rdf:RDF>
  </metadata>
  <defs
     id="defs20" />
  <sodipodi:namedview
     pagecolor="#ffffff"
     bordercolor="#666666"
     borderopacity="1"
     objecttolerance="10"
     gridtolerance="10"
     guidetolerance="10"
     inkscape:pageopacity="0"
     inkscape:pageshadow="2"
     inkscape:window-width="1920"
     inkscape:window-height="1016"
     id="namedview18"
     showgrid="false"
     inkscape:zoom="14.75"
     inkscape:cx="8"
     inkscape:cy="8"
     inkscape:window-x="0"
     inkscape:window-y="27"
     inkscape:window-maximized="1"
     inkscape:current-layer="svg16" />
  <path
     sodipodi:nodetypes="cccccccccc"
     inkscape:connector-curvature="0"
     id="path4555"
     d="M 1.5,14.03529 6.794118,0.80000004 H 9.4411755 L 14.735293,14.03529 H 12.088234 L 8.2058815,3.44706 v 0 L 4.147059,14.03529 H 1.5 v 0"
     style="opacity:1;fill:#808080;fill-opacity:1;stroke:none;stroke-width:0.17647059px;stroke-linecap:butt;stroke-linejoin:miter;stroke-opacity:1" />
  <path
     inkscape:connector-curvature="0"
     id="path4557"
     d="M 8.1418475,15.8 6.377142,10.50588 8.1418475,6.97647 l 1.764706,3.52941 z"
     style="opacity:1;fill:#808080;fill-opacity:1;stroke:none;stroke-width:0.17647059px;stroke-linecap:butt;stroke-linejoin:miter;stroke-opacity:1" />
</svg>
